X: 8
T: Tumblers Hornpipe
O: England
B: James Biggin Collection, via Nick Barber's Tunebook
Z: Anahata
M: 3/2
L: 1/8
K: G
G3A BABc d4 | E2ed cBAG F2ED | EGFA GBAc B3A | G2gf edcB A2G2 :||
g2ag f2gf e4 | E2AB cBAG F2ED | EGFA GBAc B3A | G2gf edcB A2G2 :||
D2G2 GAGF E4 | E2AB cBAG F2ED | GFGA BABd B3A | G2gf edcB A2G2 :||

